X: 17789
T: Honourable Miss Charteris
R: reel
M: 4/4
K: Gminor
d|gaba {a}Tg2 fd|cdfg {fg}agfa|gaba {a}g2 fd|cdfA G/G/G G:|
c|(B/c/d) BG BdgB|(A/B/c) AF AcfA|(B/c/d) BG BdgB|{B}A>G^FA G/G/G Gc|
(B/c/d) BG BdgB|(A/B/c) AF AcfA|Bcde fgfd|cf{d}cA G/G/G G||

